Resources/Icons/PCGEx_Pin_IN_ClusterState.svg

<?xml version="1.0" encoding="UTF-8"?>
<svg id="icons" xmlns="http://www.w3.org/2000/svg" viewBox="0 0 100 100">
  <defs>
    <style>
      .cls-1 {
        fill: #fff;
      }

      .cls-2 {
        fill: #4d8dfc;
      }

      .cls-3 {
        fill: #ffa627;
      }

      .cls-4 {
        opacity: .5;
      }
    </style>
  </defs>
  <g class="cls-4">
    <g>
      <polyline class="cls-2" points="83.99 65.67 92.15 70.43 72.65 81.81 53.15 70.43 61.3 65.67"/>
      <path d="M72.65,83.3c-.26,0-.52-.07-.75-.2l-19.5-11.38c-.46-.27-.74-.76-.74-1.29s.28-1.02.74-1.29l8.16-4.76,1.5,2.57-5.95,3.47,16.55,9.66,16.55-9.66-5.95-3.47,1.5-2.57,8.16,4.76c.46.27.74.76.74,1.29s-.28,1.02-.74,1.29l-19.5,11.38c-.23.14-.49.2-.75.2Z"/>
    </g>
    <g>
      <polyline class="cls-1" points="83.98 55.95 92.15 60.72 72.65 72.1 53.15 60.72 61.69 55.73"/>
      <path d="M72.65,73.59c-.26,0-.52-.07-.75-.2l-19.5-11.38c-.46-.27-.74-.76-.74-1.29s.28-1.02.74-1.29l8.55-4.99,1.5,2.57-6.34,3.7,16.55,9.66,16.55-9.66-5.96-3.48,1.5-2.57,8.17,4.77c.46.27.74.76.74,1.29s-.28,1.02-.74,1.29l-19.5,11.38c-.23.14-.49.2-.75.2Z"/>
    </g>
    <g>
      <polygon class="cls-3" points="72.65 62.41 53.15 51.03 72.65 39.65 92.15 51.03 72.65 62.41"/>
      <path d="M72.65,63.9c-.26,0-.52-.07-.75-.2l-19.5-11.38c-.46-.27-.74-.76-.74-1.29s.28-1.02.74-1.29l19.5-11.38c.46-.27,1.04-.27,1.5,0l19.5,11.38c.46.27.74.76.74,1.29s-.28,1.02-.74,1.29l-19.5,11.38c-.23.14-.49.2-.75.2ZM56.1,51.03l16.55,9.66,16.55-9.66-16.55-9.66-16.55,9.66Z"/>
    </g>
  </g>
  <g>
    <g>
      <polyline class="cls-2" points="61.17 57.6 74.86 65.59 42.12 84.7 9.38 65.59 23.07 57.6"/>
      <path d="M42.12,87.2c-.44,0-.87-.11-1.26-.34l-32.74-19.11c-.77-.45-1.24-1.27-1.24-2.16s.47-1.71,1.24-2.16l13.69-7.99,2.52,4.32-9.99,5.83,27.78,16.21,27.78-16.21-9.99-5.83,2.52-4.32,13.69,7.99c.77.45,1.24,1.27,1.24,2.16s-.47,1.71-1.24,2.16l-32.74,19.11c-.39.23-.82.34-1.26.34Z"/>
    </g>
    <g>
      <polyline class="cls-1" points="61.15 41.28 74.86 49.29 42.12 68.39 9.38 49.29 23.73 40.91"/>
      <path d="M42.12,70.89c-.44,0-.87-.11-1.26-.34L8.12,51.44c-.77-.45-1.24-1.27-1.24-2.16s.47-1.71,1.24-2.16l14.35-8.38,2.52,4.32-10.65,6.22,27.78,16.21,27.78-16.21-10.01-5.84,2.52-4.32,13.71,8c.77.45,1.24,1.27,1.24,2.16s-.47,1.71-1.24,2.16l-32.74,19.11c-.39.23-.82.34-1.26.34Z"/>
    </g>
    <g>
      <polygon class="cls-3" points="42.12 52.13 9.38 33.02 42.12 13.91 74.86 33.02 42.12 52.13"/>
      <path d="M42.12,54.63c-.44,0-.87-.11-1.26-.34L8.12,35.18c-.77-.45-1.24-1.27-1.24-2.16s.47-1.71,1.24-2.16L40.86,11.75c.78-.46,1.74-.46,2.52,0l32.74,19.11c.77.45,1.24,1.27,1.24,2.16s-.47,1.71-1.24,2.16l-32.74,19.11c-.39.23-.82.34-1.26.34ZM14.34,33.02l27.78,16.21,27.78-16.21-27.78-16.22-27.78,16.22Z"/>
    </g>
  </g>
</svg>

<svg xmlns="http://www.w3.org/2000/svg" viewBox="0 0 100 100"><defs><style>.cls-1{opacity:0.5;}.cls-2{fill:#4d8dfc;}.cls-3{fill:#fff;}.cls-4{fill:#ffa627;}</style></defs><g id="icons"><g class="cls-1"><polyline class="cls-2" points="83.99 65.67 92.15 70.43 72.65 81.81 53.15 70.43 61.3 65.67"/><path d="M72.65,83.3a1.53,1.53,0,0,1-.75-.2L52.4,71.72a1.49,1.49,0,0,1-.74-1.29,1.47,1.47,0,0,1,.74-1.28l8.15-4.76L62.05,67,56.1,70.43l16.55,9.66,16.54-9.66-6-3.47,1.5-2.58,8.16,4.77a1.49,1.49,0,0,1,.74,1.28,1.52,1.52,0,0,1-.74,1.29L73.4,83.1A1.53,1.53,0,0,1,72.65,83.3Z"/><polyline class="cls-3" points="83.98 55.95 92.15 60.72 72.65 72.1 53.15 60.72 61.7 55.73"/><path d="M72.65,73.59a1.44,1.44,0,0,1-.75-.21L52.4,62a1.47,1.47,0,0,1-.74-1.28,1.49,1.49,0,0,1,.74-1.29l8.54-5L62.45,57,56.1,60.72l16.55,9.65,16.54-9.65-6-3.48,1.5-2.57,8.17,4.76a1.52,1.52,0,0,1,.74,1.29A1.49,1.49,0,0,1,92.9,62L73.4,73.38A1.44,1.44,0,0,1,72.65,73.59Z"/><polygon class="cls-4" points="72.65 62.41 53.15 51.03 72.65 39.65 92.15 51.03 72.65 62.41"/><path d="M72.65,63.9a1.53,1.53,0,0,1-.75-.2L52.4,52.32A1.49,1.49,0,0,1,51.66,51a1.47,1.47,0,0,1,.74-1.28L71.9,38.36a1.49,1.49,0,0,1,1.5,0L92.9,49.75A1.49,1.49,0,0,1,93.64,51a1.52,1.52,0,0,1-.74,1.29L73.4,63.7A1.53,1.53,0,0,1,72.65,63.9ZM56.1,51l16.55,9.66L89.19,51,72.65,41.37Z"/></g><polyline class="cls-2" points="61.17 57.6 74.86 65.59 42.12 84.7 9.38 65.59 23.07 57.6"/><path d="M42.12,87.2a2.46,2.46,0,0,1-1.26-.34L8.12,67.75a2.49,2.49,0,0,1,0-4.31l13.69-8,2.52,4.32-10,5.83L42.12,81.81,69.9,65.59l-10-5.83,2.52-4.32,13.69,8a2.49,2.49,0,0,1,0,4.31L43.38,86.86A2.49,2.49,0,0,1,42.12,87.2Z"/><polyline class="cls-3" points="61.15 41.28 74.86 49.28 42.12 68.39 9.38 49.28 23.73 40.91"/><path d="M42.12,70.89a2.46,2.46,0,0,1-1.26-.34L8.12,51.44a2.49,2.49,0,0,1,0-4.31l14.35-8.38L25,43.07,14.34,49.29,42.12,65.5,69.9,49.29l-10-5.85,2.52-4.32,13.71,8a2.49,2.49,0,0,1,0,4.31L43.38,70.55A2.49,2.49,0,0,1,42.12,70.89Z"/><polygon class="cls-4" points="42.12 52.13 9.38 33.02 42.12 13.91 74.86 33.02 42.12 52.13"/><path d="M42.12,54.63a2.46,2.46,0,0,1-1.26-.34L8.12,35.18a2.5,2.5,0,0,1,0-4.32L40.86,11.75a2.52,2.52,0,0,1,2.52,0L76.12,30.86a2.5,2.5,0,0,1,0,4.32L43.38,54.29A2.49,2.49,0,0,1,42.12,54.63ZM14.34,33,42.12,49.24,69.9,33,42.12,16.8Z"/></g></svg>
